X:132
T:Pantaloon. THO5.132, The
M:2/4
L:1/8
B:Thompson's Complete Collection of 200 Favourite Dances Vol.5
F:https://www.libraryofdance.org/manuals/1780c-Thompson-Compleat-5.pdf
Z:vmp. Peter Dunk 2024
U:w=!wedge!
Q:1/4=120
K:Bb
(3([BD][BD][BD]) [B2D2]|(3([DB][DB][DB]) [B2D2]|bz az|Tg3/f//g// f2|
(3([BD][BD][BD]) [B2D2]|(3([BD][BD][BD]) [B2D2]|(3(edc) (3(BcA)|[B2D2][B2D2]:|
|:w[c2F2] (3(cde)|e2-dwf|(3(fgf) (3(fed)|d2c2|
[c2F2] (3(cde)|d2 (3(bag)|(3(fgf) (3(edc)|B2 B,2:|
W:
W:1st Lady set to the 2nd Gent &turn the 3rd ./.
W:1st Gent set to the 2nd Lady and turn the 3rd ./:
W:Allemand & cast off :/.
W:Allemand again :/:

